Numix-GalliumOS/16/devices/gnome-dev-network.svg

<?xml version="1.0" encoding="UTF-8" standalone="no"?>
<svg
   xmlns:dc="http://purl.org/dc/elements/1.1/"
   xmlns:cc="http://creativecommons.org/ns#"
   xmlns:rdf="http://www.w3.org/1999/02/22-rdf-syntax-ns#"
   xmlns:svg="http://www.w3.org/2000/svg"
   xmlns="http://www.w3.org/2000/svg"
   xmlns:sodipodi="http://sodipodi.sourceforge.net/DTD/sodipodi-0.dtd"
   xmlns:inkscape="http://www.inkscape.org/namespaces/inkscape"
   width="16"
   height="16"
   viewBox="0 0 16 16"
   id="svg1580"
   version="1.1"
   inkscape:version="0.91 r"
   sodipodi:docname="gnome-dev-network.svg">
  <metadata
     id="metadata1592">
    <rdf:RDF>
      <cc:Work
         rdf:about="">
        <dc:format>image/svg+xml</dc:format>
        <dc:type
           rdf:resource="http://purl.org/dc/dcmitype/StillImage" />
      </cc:Work>
    </rdf:RDF>
  </metadata>
  <defs
     id="defs1590" />
  <sodipodi:namedview
     pagecolor="#ffffff"
     bordercolor="#666666"
     borderopacity="1"
     objecttolerance="10"
     gridtolerance="10"
     guidetolerance="10"
     inkscape:pageopacity="0"
     inkscape:pageshadow="2"
     inkscape:window-width="640"
     inkscape:window-height="480"
     id="namedview1588" />
  <g
     style="fill-opacity:.8"
     id="g1582">
    <path
       style="fill:#ededec"
       d="M 1.746094 2.683594 C 1.519531 2.730469 1.34375 2.953125 1.351562 3.183594 L 1.351562 12.484375 C 1.351562 12.746094 1.585938 12.980469 1.847656 12.980469 L 14.152344 12.980469 C 14.414062 12.980469 14.648438 12.746094 14.648438 12.484375 L 14.648438 4.1875 C 14.648438 3.929688 14.414062 3.691406 14.152344 3.691406 L 9.328125 3.691406 L 9.328125 3.183594 C 9.328125 2.921875 9.09375 2.683594 8.832031 2.683594 L 1.847656 2.683594 C 1.8125 2.679688 1.78125 2.679688 1.746094 2.683594 Z "
       id="path1584" />
    <path
       style="fill:#000"
       d="M 1.730469 2.667969 C 1.503906 2.714844 1.328125 2.9375 1.332031 3.167969 L 1.332031 12.5 C 1.332031 12.761719 1.570312 13 1.832031 13 L 14.167969 13 C 14.429688 13 14.667969 12.761719 14.667969 12.5 L 14.667969 4.175781 C 14.667969 3.914062 14.429688 3.675781 14.167969 3.675781 L 9.332031 3.675781 L 9.332031 3.167969 C 9.332031 2.90625 9.09375 2.667969 8.832031 2.667969 L 1.832031 2.667969 C 1.796875 2.664062 1.765625 2.664062 1.730469 2.667969 Z M 7.667969 5.332031 L 8 5.332031 C 9.46875 5.332031 10.667969 6.53125 10.667969 8 C 10.667969 9.46875 9.804688 10.667969 8 10.667969 C 6.332031 10.667969 5.332031 9.46875 5.332031 8 C 5.332031 6.53125 6.527344 5.332031 7.667969 5.332031 Z M 8.21875 5.707031 C 8.21875 5.71875 8.21875 5.714844 8.21875 5.730469 C 8.195312 5.957031 8.070312 5.808594 8.019531 5.832031 C 7.972656 5.855469 7.65625 6.296875 7.65625 6.25 C 7.65625 6.203125 7.71875 6.136719 7.71875 6.136719 C 7.71875 6.136719 7.734375 5.933594 7.699219 5.71875 C 7.59375 5.730469 7.496094 5.746094 7.394531 5.769531 L 7.082031 6.28125 C 7.109375 6.285156 7.144531 6.292969 7.175781 6.3125 C 7.34375 6.40625 7.410156 6.5 7.457031 6.511719 C 7.507812 6.523438 7.71875 6.21875 7.5625 6.542969 C 7.40625 6.863281 7.335938 6.96875 7.15625 7.042969 C 7.144531 7.046875 7.136719 7.046875 7.125 7.050781 C 7.078125 7.105469 7.015625 7.160156 6.9375 7.230469 C 6.769531 7.378906 6.6875 7.402344 6.6875 7.550781 C 6.6875 7.703125 6.691406 7.820312 6.574219 8.019531 C 6.453125 8.222656 6.375 8.214844 6.425781 8.363281 C 6.476562 8.515625 6.511719 8.785156 6.425781 8.667969 C 6.34375 8.550781 6.378906 8.316406 6.3125 8.449219 C 6.253906 8.566406 6.113281 8.609375 6.105469 8.730469 C 6.101562 8.746094 6.101562 8.761719 6.105469 8.78125 C 6.105469 8.785156 6.101562 8.785156 6.105469 8.792969 C 6.148438 8.9375 6.394531 8.742188 6.394531 8.855469 C 6.394531 8.972656 6.179688 8.960938 6.230469 9.0625 C 6.28125 9.164062 6.476562 8.867188 6.644531 8.917969 C 6.8125 8.964844 6.703125 8.996094 6.855469 9.0625 C 7.003906 9.128906 7.09375 9.203125 7.09375 9.300781 C 7.09375 9.402344 7.570312 9.355469 7.519531 9.519531 C 7.46875 9.6875 7.421875 9.648438 7.269531 9.832031 C 7.1875 9.933594 7.113281 9.992188 7.0625 10.042969 C 7.132812 10.09375 7.148438 10.121094 7.230469 10.09375 C 7.335938 10.058594 7.199219 10.007812 7.28125 9.957031 C 7.300781 9.945312 7.3125 9.9375 7.324219 9.925781 C 7.335938 9.917969 7.351562 9.902344 7.375 9.894531 C 7.425781 9.878906 7.527344 9.875 7.761719 9.875 C 8.226562 9.875 8.449219 9.894531 8.449219 9.894531 C 8.449219 9.894531 8.601562 9.894531 8.457031 9.980469 C 8.355469 10.039062 8.140625 10.148438 8.113281 10.175781 C 8.125 10.175781 8.148438 10.175781 8.175781 10.167969 C 8.390625 10.105469 8.6875 10.054688 8.769531 10.03125 C 8.804688 10.019531 8.992188 9.921875 9.144531 9.855469 C 9.152344 9.839844 9.148438 9.828125 9.15625 9.8125 L 9.144531 9.8125 C 9.027344 9.761719 8.933594 9.535156 8.96875 9.46875 C 9.003906 9.402344 9.082031 9.34375 9.167969 9.175781 C 9.25 9.007812 9.234375 9.125 9 8.824219 C 8.765625 8.519531 8.640625 8.839844 8.519531 8.738281 C 8.402344 8.636719 8.164062 8.550781 8.0625 8.363281 C 7.960938 8.179688 8.011719 8.316406 8.011719 8.113281 C 8.011719 7.914062 7.992188 8.0625 8.042969 7.894531 C 8.09375 7.726562 8.226562 7.710938 8.394531 7.59375 C 8.417969 7.578125 8.445312 7.574219 8.46875 7.5625 C 8.429688 7.527344 8.375 7.449219 8.269531 7.34375 C 8.269531 7.34375 8.375 7.128906 8.457031 7.09375 C 8.539062 7.0625 8.585938 7.074219 8.699219 7.105469 C 8.703125 7.085938 8.703125 7.082031 8.707031 7.042969 C 8.726562 6.90625 8.65625 6.980469 8.65625 6.894531 C 8.65625 6.8125 8.695312 6.898438 8.8125 6.863281 C 8.929688 6.832031 8.933594 6.601562 9.050781 6.636719 C 9.171875 6.667969 9.167969 6.589844 9.269531 6.4375 C 9.371094 6.285156 9.269531 6.371094 9.136719 6.300781 C 9 6.234375 9.117188 6.402344 9.082031 6.519531 C 9.050781 6.636719 8.953125 6.566406 8.832031 6.3125 C 8.714844 6.058594 8.816406 6.160156 8.886719 5.957031 C 8.898438 5.921875 8.910156 5.90625 8.925781 5.886719 C 8.707031 5.789062 8.46875 5.730469 8.21875 5.707031 Z M 8.667969 6.605469 C 8.71875 6.613281 8.757812 6.667969 8.78125 6.71875 C 8.792969 6.746094 8.785156 6.753906 8.769531 6.761719 C 8.769531 6.761719 8.792969 6.816406 8.792969 6.832031 C 8.792969 6.851562 8.757812 6.84375 8.675781 6.824219 C 8.617188 6.808594 8.65625 6.800781 8.699219 6.769531 L 8.625 6.769531 C 8.59375 6.769531 8.578125 6.765625 8.574219 6.761719 C 8.578125 6.765625 8.574219 6.761719 8.582031 6.769531 C 8.59375 6.78125 8.59375 6.789062 8.59375 6.792969 C 8.582031 6.789062 8.546875 6.785156 8.519531 6.792969 C 8.464844 6.804688 8.527344 6.765625 8.550781 6.71875 C 8.550781 6.71875 8.566406 6.730469 8.574219 6.738281 C 8.582031 6.714844 8.605469 6.671875 8.605469 6.613281 C 8.625 6.605469 8.648438 6.597656 8.667969 6.605469 Z M 9.9375 6.75 C 9.851562 6.8125 9.746094 6.953125 9.65625 7.042969 C 9.503906 7.191406 9.738281 7.210938 9.824219 7.230469 C 9.90625 7.246094 9.988281 7.1875 10.15625 7.1875 C 10.152344 7.179688 10.148438 7.175781 10.144531 7.167969 C 10.125 7.167969 10.101562 7.175781 10.074219 7.175781 C 9.972656 7.175781 10.039062 7.082031 10.0625 6.949219 C 10.027344 6.878906 9.980469 6.816406 9.9375 6.75 Z M 8.894531 7.0625 C 8.859375 7.050781 8.804688 7.089844 8.738281 7.125 C 8.785156 7.191406 8.648438 7.378906 8.574219 7.511719 C 8.570312 7.515625 8.566406 7.515625 8.5625 7.519531 C 8.707031 7.496094 8.933594 7.53125 9.4375 7.65625 C 9.4375 7.65625 9.621094 7.609375 9.65625 7.675781 C 9.667969 7.699219 9.734375 7.714844 9.8125 7.71875 C 10.015625 7.636719 9.90625 7.570312 9.90625 7.40625 C 9.90625 7.238281 9.652344 7.429688 9.6875 7.34375 C 9.722656 7.257812 9.648438 7.261719 9.53125 7.144531 C 9.414062 7.027344 9.4375 7.4375 9.355469 7.355469 C 9.269531 7.269531 9.261719 7.339844 9.230469 7.269531 C 9.195312 7.203125 9.082031 7.09375 9.082031 7.09375 C 9.082031 7.09375 9.164062 7.1875 9.144531 7.355469 C 9.128906 7.523438 8.894531 7.375 8.894531 7.375 C 8.894531 7.375 8.933594 7.359375 9 7.34375 C 9.066406 7.328125 8.988281 7.222656 8.9375 7.105469 C 8.925781 7.074219 8.910156 7.066406 8.894531 7.0625 Z M 10.3125 7.894531 C 10.292969 7.910156 10.261719 7.929688 10.238281 7.9375 C 10.054688 8.003906 9.925781 8.144531 9.925781 8.144531 C 9.925781 8.144531 10.140625 8.148438 10.292969 8.28125 C 10.300781 8.191406 10.3125 8.09375 10.3125 8 C 10.3125 7.964844 10.3125 7.929688 10.3125 7.894531 Z "
       id="path1586" />
  </g>
</svg>

<svg xmlns="http://www.w3.org/2000/svg" viewBox="0 0 16 16">
 <g style="fill-opacity:0.8">
  <path d="m 1.746 2.684 c -0.227 0.047 -0.402 0.27 -0.395 0.5 l 0 9.301 c 0 0.262 0.234 0.496 0.496 0.496 l 12.305 0 c 0.262 0 0.496 -0.234 0.496 -0.496 l 0 -8.297 c 0 -0.258 -0.234 -0.496 -0.496 -0.496 l -4.824 0 l 0 -0.508 c 0 -0.262 -0.234 -0.5 -0.496 -0.5 l -6.984 0 c -0.035 -0.004 -0.066 -0.004 -0.102 0 Z" style="fill:#ededec"/>
  <path d="m 1.73 2.668 c -0.227 0.047 -0.402 0.27 -0.398 0.5 l 0 9.332 c 0 0.262 0.238 0.5 0.5 0.5 l 12.336 0 c 0.262 0 0.5 -0.238 0.5 -0.5 l 0 -8.324 c 0 -0.262 -0.238 -0.5 -0.5 -0.5 l -4.836 0 l 0 -0.508 c 0 -0.262 -0.238 -0.5 -0.5 -0.5 l -7 0 c -0.035 -0.004 -0.066 -0.004 -0.102 0 m 5.938 2.664 l 0.332 0 c 1.469 0 2.668 1.199 2.668 2.668 c 0 1.469 -0.863 2.668 -2.668 2.668 c -1.668 0 -2.668 -1.199 -2.668 -2.668 c 0 -1.469 1.195 -2.668 2.336 -2.668 m 0.551 0.375 c 0 0.012 0 0.008 0 0.023 c -0.023 0.227 -0.148 0.078 -0.199 0.102 c -0.047 0.023 -0.363 0.465 -0.363 0.418 c 0 -0.047 0.063 -0.113 0.063 -0.113 c 0 0 0.016 -0.203 -0.02 -0.418 c -0.105 0.012 -0.203 0.027 -0.305 0.051 l -0.313 0.512 c 0.027 0.004 0.063 0.012 0.094 0.031 c 0.168 0.094 0.234 0.188 0.281 0.199 c 0.051 0.012 0.262 -0.293 0.105 0.031 c -0.156 0.32 -0.227 0.426 -0.406 0.5 c -0.012 0.004 -0.02 0.004 -0.031 0.008 c -0.047 0.055 -0.109 0.109 -0.188 0.18 c -0.168 0.148 -0.25 0.172 -0.25 0.32 c 0 0.152 0.004 0.27 -0.113 0.469 c -0.121 0.203 -0.199 0.195 -0.148 0.344 c 0.051 0.152 0.086 0.422 0 0.305 c -0.082 -0.117 -0.047 -0.352 -0.113 -0.219 c -0.059 0.117 -0.199 0.16 -0.207 0.281 c -0.004 0.016 -0.004 0.031 0 0.051 c 0 0.004 -0.004 0.004 0 0.012 c 0.043 0.145 0.289 -0.051 0.289 0.063 c 0 0.117 -0.215 0.105 -0.164 0.207 c 0.051 0.102 0.246 -0.195 0.414 -0.145 c 0.168 0.047 0.059 0.078 0.211 0.145 c 0.148 0.066 0.238 0.141 0.238 0.238 c 0 0.102 0.477 0.055 0.426 0.219 c -0.051 0.168 -0.098 0.129 -0.25 0.313 c -0.082 0.102 -0.156 0.16 -0.207 0.211 c 0.07 0.051 0.086 0.078 0.168 0.051 c 0.105 -0.035 -0.031 -0.086 0.051 -0.137 c 0.02 -0.012 0.031 -0.02 0.043 -0.031 c 0.012 -0.008 0.027 -0.023 0.051 -0.031 c 0.051 -0.016 0.152 -0.02 0.387 -0.02 c 0.465 0 0.687 0.02 0.687 0.02 c 0 0 0.152 0 0.008 0.086 c -0.102 0.059 -0.316 0.168 -0.344 0.195 c 0.012 0 0.035 0 0.063 -0.008 c 0.215 -0.063 0.512 -0.113 0.594 -0.137 c 0.035 -0.012 0.223 -0.109 0.375 -0.176 c 0.008 -0.016 0.004 -0.027 0.012 -0.043 l -0.012 0 c -0.117 -0.051 -0.211 -0.277 -0.176 -0.344 c 0.035 -0.066 0.113 -0.125 0.199 -0.293 c 0.082 -0.168 0.066 -0.051 -0.168 -0.352 c -0.234 -0.305 -0.359 0.016 -0.48 -0.086 c -0.117 -0.102 -0.355 -0.188 -0.457 -0.375 c -0.102 -0.184 -0.051 -0.047 -0.051 -0.25 c 0 -0.199 -0.02 -0.051 0.031 -0.219 c 0.051 -0.168 0.184 -0.184 0.352 -0.301 c 0.023 -0.016 0.051 -0.02 0.074 -0.031 c -0.039 -0.035 -0.094 -0.113 -0.199 -0.219 c 0 0 0.105 -0.215 0.188 -0.25 c 0.082 -0.031 0.129 -0.02 0.242 0.012 c 0.004 -0.02 0.004 -0.023 0.008 -0.063 c 0.02 -0.137 -0.051 -0.063 -0.051 -0.148 c 0 -0.082 0.039 0.004 0.156 -0.031 c 0.117 -0.031 0.121 -0.262 0.238 -0.227 c 0.121 0.031 0.117 -0.047 0.219 -0.199 c 0.102 -0.152 0 -0.066 -0.133 -0.137 c -0.137 -0.066 -0.02 0.102 -0.055 0.219 c -0.031 0.117 -0.129 0.047 -0.25 -0.207 c -0.117 -0.254 -0.016 -0.152 0.055 -0.355 c 0.012 -0.035 0.023 -0.051 0.039 -0.07 c -0.219 -0.098 -0.457 -0.156 -0.707 -0.18 m 0.449 0.898 c 0.051 0.008 0.09 0.063 0.113 0.113 c 0.012 0.027 0.004 0.035 -0.012 0.043 c 0 0 0.023 0.055 0.023 0.07 c 0 0.02 -0.035 0.012 -0.117 -0.008 c -0.059 -0.016 -0.02 -0.023 0.023 -0.055 l -0.074 0 c -0.031 0 -0.047 -0.004 -0.051 -0.008 c 0.004 0.004 0 0 0.008 0.008 c 0.012 0.012 0.012 0.02 0.012 0.023 c -0.012 -0.004 -0.047 -0.008 -0.074 0 c -0.055 0.012 0.008 -0.027 0.031 -0.074 c 0 0 0.016 0.012 0.023 0.02 c 0.008 -0.023 0.031 -0.066 0.031 -0.125 c 0.02 -0.008 0.043 -0.016 0.063 -0.008 m 1.27 0.145 c -0.086 0.063 -0.191 0.203 -0.281 0.293 c -0.152 0.148 0.082 0.168 0.168 0.188 c 0.082 0.016 0.164 -0.043 0.332 -0.043 c -0.004 -0.008 -0.008 -0.012 -0.012 -0.02 c -0.02 0 -0.043 0.008 -0.07 0.008 c -0.102 0 -0.035 -0.094 -0.012 -0.227 c -0.035 -0.07 -0.082 -0.133 -0.125 -0.199 m -1.043 0.313 c -0.035 -0.012 -0.09 0.027 -0.156 0.063 c 0.047 0.066 -0.09 0.254 -0.164 0.387 c -0.004 0.004 -0.008 0.004 -0.012 0.008 c 0.145 -0.023 0.371 0.012 0.875 0.137 c 0 0 0.184 -0.047 0.219 0.02 c 0.012 0.023 0.078 0.039 0.156 0.043 c 0.203 -0.082 0.094 -0.148 0.094 -0.313 c 0 -0.168 -0.254 0.023 -0.219 -0.063 c 0.035 -0.086 -0.039 -0.082 -0.156 -0.199 c -0.117 -0.117 -0.094 0.293 -0.176 0.211 c -0.086 -0.086 -0.094 -0.016 -0.125 -0.086 c -0.035 -0.066 -0.148 -0.176 -0.148 -0.176 c 0 0 0.082 0.094 0.063 0.262 c -0.016 0.168 -0.25 0.02 -0.25 0.02 c 0 0 0.039 -0.016 0.105 -0.031 c 0.066 -0.016 -0.012 -0.121 -0.063 -0.238 c -0.012 -0.031 -0.027 -0.039 -0.043 -0.043 m 1.418 0.832 c -0.02 0.016 -0.051 0.035 -0.074 0.043 c -0.184 0.066 -0.313 0.207 -0.313 0.207 c 0 0 0.215 0.004 0.367 0.137 c 0.008 -0.09 0.02 -0.188 0.02 -0.281 c 0 -0.035 0 -0.07 0 -0.105 Z" style="fill:#000"/>
 </g>
</svg>
